X:1
T:Title
%%score { ( 1 3 ) | ( 2 4 ) }
L:1/8
Q:1/4=100
M:4/4
K:F
V:1 treble nm="Grand Piano"
V:3 treble 
V:2 bass 
V:4 bass 
V:1
 A4 B2 A2 | z4 A2 z2 | F4 z4 | [CA]8 | A4 z4 | z4 A2 z2 | z2 A2 e2 d2 | [Ec]8 | %8
w: F.~N.~Shepperd * *||||||||
 [Ed]4 [_E^F]2 [=EG]2 | d3 c c4 | [Dc]4 [^CE]2 [DF]2 | z4 B4 | A4 z4 | z4 B4 | %14
w: ||||||
 [CEB]4 [G,CE]2 [B,CE]2 | [A,CF]8 |] %16
w: ||
V:2
 [F,CF]4 [F,DF]2 [F,CF]2 | [D,=B,]3 [D,B,] [C,C]2 [C,_B,]2 | A,4 z4 | [F,,F,]8 | %4
 C2 z2 [F,DF]2 [F,CF]2 | [D,=B,]3 [D,B,] [C,C]2 [^C,_B,]2 | A,2 z2 z4 | [C,C]8 | %8
 [C,B,]4 [C,A,]2 [C,B,]2 | [F,A,_E]3 [F,A,E] [F,A,E]4 | [B,,_A,]4 [B,,G,]2 [B,,A,]2 | %11
 z4 [_E,^C]2 z2 | C2 z2 z4 | z4[K:treble] [DG]2 z2 | C,4 C,2 C,2 | F,8 |] %16
V:3
 x8 | [FG]3 [FG] E2- [EG]2 | z2 _E2 [B,DF]2 [^CG]2 | x8 | z2 ^C2 B2 A2 | [FG]3 [FG] E2- [EG]2 | %6
 F4 z4 | x8 | x8 | x8 | x8 | c3 B z2 C2 | z2 F2 A2 A2 | c3 B z2 F2 | x8 | x8 |] %16
V:4
 x8 | x8 | [D,D]2 C,2 B,,2 [B,,F,]2 | x8 | [F,F]4 z4 | x8 | D,2- [D,C]2 [G,,G,=B,F]2 [G,,G,B,F]2 | %7
 x8 | x8 | x8 | x8 | [_E,G,^C]3 [E,G,C] G,2- [=E,G,]2 | F,2- [F,A,]2 [F,CE]2 [^F,C_E]2 | %13
 [^F,A,D]3[K:treble] [G,B,D] G,2- [G,^C]2 | x8 | x8 |] %16

